X:1394
T:Bessy Bell
S:Digital Tradition, bessbell
N:Bronson A.
D:Recorded by Martin Carthy on Shearwater; Steeleye Span on Tempted and Tried
Z:dt:bessbell
M:6/8
L:1/8
Q:3/8=100
W:O Bessie Bell and Mary Gray,
W:They war twa bonnie lasses;
W:They bigget a bower on yon burn brae,
W:And theekit it o'er wi' rashes.
W:They theekit it o'er w rashes green,
W:They theekit it o'er w heather;
W:But the pest cam frae the burrows-town,
W:And slew them baith thegither.
W:
W:They thought to lye in Methven kirk yard,
W:Amang their noble kin;
W:But they maun lye in Stronach haugh,
W:To biek forenent the sin.
W:And Bessy Bell and Mary Gray,
W:Tney war twa bonnie lasses;
W:Tney bigget a bower on yon burn brae,
W:And theekit it o'er wi' rashes.
K:F
G|"C"E3/2-F/G G3/2-A/B|"Bb"A3/2-G/A F2F|"C"E3/2-F/G G3/2-A/G|"Bb"c3 e2G|\
"C"E3/2-F/G G3/2-A/B|"F"A3/2-G/F f2d|"C"g2-f/e/ "Bb"f2-e/d/|"C"c3 e2g|
"C"e3/2-d/e c3/2-d/e|"Bb"f-dB d-ef|"C"g-ec c3/2-d/c|"Bb"e3 f2e/-f/|\
"C"g-ec e-fg|"Bb"f-dB d-ef|"C"g2-f/e/ "Bb"f2-e/d/|"C"c3 e2||
